X:1
T:Title
%%score { ( 1 3 ) | 2 }
L:1/8
M:9/8
K:G
V:1 treble nm="Grand Piano"
V:3 treble 
V:2 treble 
V:1
 z3 z3[Q:1/4=102] DGA | B3 B3 [DBd][DAc][DGB] | [DFA]6 DFA | [Ac]3 [Ac]3 [ce][Bd][Ac] | %4
[M:3/4] [GB]6 |[M:3/8] [GB][Ac][Bd] |[M:9/8] [Bd]3 B3 Bcd | e6 [Ge][Ec][EA] | G3 F3 BBA | %9
[M:3/4] G6 |[M:3/8] dBG |[M:9/8] A3 z3 D3 | z DD D3 BBB | e-[Ge-][Ge] [GB]3 BBA | %14
 A-[FA-][FA-] [FA]3 ccc | z GG d3 ^ddd | e-[Ge-][Ge-] [Ge]3 ecA | G3 F3 z3 |[M:3/4] [B,DG]6 |] %19
V:2
 z3 z3 [G,B,][G,B,D][G,CD] | [G,DG]3 [G,DG]3[K:bass] G,F,G, | D,6 D,F,A, | %3
 [D,D]3 [D,D]3 [D,D][E,D][F,D] |[M:3/4][K:treble] [G,D]6 |[M:3/8] [G,D][G,D][G,D] | %6
[M:9/8] [G,D]3 [G,DG]3 [G,DG][A,DF][B,DG] | [CG]6[K:bass] [C,C][C,G,][C,C] | %8
 [D,B,D]3 [D,A,D]3 [D,D][D,D][D,CD] |[M:3/4] [G,B,D]6 |[M:3/8] z3 | %11
[M:9/8] [D,F,D][D,F,][D,F,] [D,F,]3 [D,C]3 | [G,B,D][G,B,][G,B,] [G,B,]3 z3 | %13
 [E,B,][E,B,][E,B,] [E,E]3 [A,^CG]3 | [D,D][D,D][D,D] [D,D]3 z3 | %15
 [G,DG][G,D][G,D] [G,B,G]3[K:bass] [F,B,]3 | [E,B,][E,B,][E,B,] [E,B,]3 z3 | %17
 [D,B,D][D,B,][D,B,] [D,A,D]2 [D,A,] [D,D][D,D][D,CD] |[M:3/4] [G,,G,]6 |] %19
V:3
 x9 | x9 | x9 | x9 |[M:3/4] x6 |[M:3/8] x3 |[M:9/8] x9 | x9 | x9 |[M:3/4] x6 |[M:3/8] x3 | %11
[M:9/8] z DD D3 z FA | G6 z3 | .G3 z3 z3 | .F3 z3 z3 | B3 z3 A3 | .G3 z3 z3 | z DD z2 D BBA | %18
[M:3/4] x6 |] %19

